X:103
T:British Fishery. JJo8.103, The
%%VWML:JohnsonVol8-2184-p52-0
F:http://www.vwml.org/record/JohnsonVol8/2184/p52
Z:Transcribed by Simon Furey and Lewis Jones
Z:vmp.Simon Wilson 2013 www.village-music-project.org.uk
Z:Dance added by John Chambers 2017
T:Britifh Fifhery. JJo8.103, The
M:C|
L:1/8
%Q:1/2=90
K:A
|: cd |\
ecBA a2(gf) | ecBA B2(AB) |\
cA- AB/c/ defg | aedc B2 :|
|: GA |\
BGFE d2(cB) | Acef =g2(fe) |\
fa^gb e2d2 | cB/A/ BA/G/A2 :|
W: First Cu lead thro' the 2d Cu. and cast
W:up .| the 2d Cu. lead thro' the top Cu.
W:and cast off :| 1st and 2d Cu. Right
W:hands across round :||. then Left hands
W:across round :||: 1st Man and 2d Wo. foot
W:it and turn .| 1st Wo. and 2d Man the
W:same :| Cross over one Cu. and turn :||.
W:Right hands and left :||:
W:
T:Ben in the Minories. JJo8.104
B:J.Johnson Choice Collection Vol 8 1758
Z:vmp.Simon Wilson 2013 www.village-music-project.org.uk
Z:Dance added by John Chambers 2017
M:6/8
L:1/8
%Q:3/8=120
K:G
|:\
gab agf | g2d B2G | cde dcB | (AB)G F2D |\
G2B- B^cd | ^cde cAc | def ge^c | d3 d3 :|
|:\
D2E F2G | A2B cBA | G2A B2c | d2e =fed |\
e2f gag | fdBc2e | dcB cAF | G3 G3 :|
W: First Cu. cast off two Cu. .| Cross up
W:two Cu. to the top :| Lead down the
W:Middle up again and cast off :||.
W:Right hands and Left :||:
W:
